Yosa-Max/actions/22x22/object-group-calligra.svg

<?xml version="1.0" encoding="UTF-8"?>
<svg id="svg4359" version="1.1" viewBox="0 0 22 22" xmlns="http://www.w3.org/2000/svg">
 <g id="layer1" transform="translate(0,-26)">
  <path id="rect4174" transform="translate(0,26)" d="m3 3v10h3v3h3v3h10v-10h-3v-3h-3v-3h-10zm2 2h6v1h-5v5h-1v-6zm3 3h3 2 1v1h-1-2-2v2 2 1h-1v-1-2-2-1zm3 3h2 1 2 1v6h-6v-1-2-1-2z" style="fill:#4d4d4d"/>
 </g>
</svg>

<?xml version="1.0" encoding="UTF-8" standalone="no"?>
<svg
   xmlns:dc="http://purl.org/dc/elements/1.1/"
   xmlns:cc="http://creativecommons.org/ns#"
   xmlns:rdf="http://www.w3.org/1999/02/22-rdf-syntax-ns#"
   xmlns:svg="http://www.w3.org/2000/svg"
   xmlns="http://www.w3.org/2000/svg"
   version="1.1"
   id="svg4359"
   height="22"
   width="22">
  <defs
     id="defs4361" />
  <metadata
     id="metadata4364">
    <rdf:RDF>
      <cc:Work
         rdf:about="">
        <dc:format>image/svg+xml</dc:format>
        <dc:type
           rdf:resource="http://purl.org/dc/dcmitype/StillImage" />
        <dc:title></dc:title>
      </cc:Work>
    </rdf:RDF>
  </metadata>
  <g
     transform="translate(0,-26)"
     id="layer1">
    <path
       id="rect4174"
       transform="translate(0,26)"
       d="M 3 3 L 3 13 L 6 13 L 6 16 L 9 16 L 9 19 L 19 19 L 19 9 L 16 9 L 16 6 L 13 6 L 13 3 L 3 3 z M 5 5 L 11 5 L 11 6 L 6 6 L 6 11 L 5 11 L 5 5 z M 8 8 L 11 8 L 13 8 L 14 8 L 14 9 L 13 9 L 11 9 L 9 9 L 9 11 L 9 13 L 9 14 L 8 14 L 8 13 L 8 11 L 8 9 L 8 8 z M 11 11 L 13 11 L 14 11 L 16 11 L 17 11 L 17 17 L 11 17 L 11 16 L 11 14 L 11 13 L 11 11 z "
       style="opacity:1;fill:#4d4d4d;fill-opacity:1;stroke:none;stroke-width:0.1;stroke-linecap:round;stroke-linejoin:miter;stroke-miterlimit:4;stroke-dasharray:none;stroke-opacity:0.29943501" />
  </g>
</svg>
